assets/logo.svg

<svg height="257" viewBox="0 0 257 257" width="257" xmlns="http://www.w3.org/2000/svg" xmlns:xlink="http://www.w3.org/1999/xlink"><defs><circle id="a" cx="128.5" cy="128.5" r="125.5"/><mask id="b" fill="#fff"><use fill="none" xlink:href="#a"/></mask></defs><g fill="none" fill-rule="evenodd"><use fill="#48b882" xlink:href="#a"/><path d="m146.03505 152.744209h-83.0125914c-3.8261887 0-6.9284261-3.112578-6.9284261-6.951598 0-3.838325 3.1022374-6.951598 6.9284261-6.951598h83.0125914c3.826223 0 6.928426 3.113273 6.928426 6.951598 0 3.83902-3.102203 6.951598-6.928426 6.951598" fill="#b8dfc8" mask="url(#b)"/><path d="m128.236962 195.328135c-6.763356 0-13.442186-1.010154-19.850287-3.000588-3.654918-1.137108-5.700363-5.030402-4.567738-8.698326 1.131931-3.667246 5.020511-5.719532 8.667981-4.58371 5.079229 1.57836 10.377743 2.379428 15.750044 2.379428 23.50867 0 43.921718-15.137453 50.796103-37.665497 1.119633-3.672703 4.989852-5.741325 8.653084-4.612907 3.658382 1.125464 5.717164 5.011929 4.596838 8.68272-8.668674 28.410487-34.406737 47.49888-64.046025 47.49888" fill="#fff" mask="url(#b)"/><path d="m193.451466 117.426093h-83.012591c-3.826224 0-6.928426-3.111883-6.928426-6.951598 0-3.83902 3.102202-6.951598 6.928426-6.951598h83.012591c3.826223 0 6.928426 3.112578 6.928426 6.951598 0 3.839715-3.102203 6.951598-6.928426 6.951598" fill="#b8dfc8" mask="url(#b)"/><path d="m70.8189645 117.428179c-.6725423 0-1.3552348-.098539-2.0311547-.305523-3.6583995-1.125637-5.7173199-5.012102-4.5968548-8.68272 8.6693317-28.4125715 34.4074128-47.5002696 64.046007-47.5002696 6.766648 0 13.44617 1.0093721 19.8515 3.0039594 3.655784 1.1371076 5.69915 5.0303501 4.565833 8.6976657-1.132625 3.667837-5.016354 5.729681-8.669367 4.5809294-5.076631-1.5783604-10.374452-2.3793583-15.747966-2.3793583-23.507976 0-43.9217179 15.1365836-50.7961023 37.6668864-.9133397 2.99249-3.6569965 4.91843-6.6218952 4.91843" fill="#fff" mask="url(#b)"/><g fill="#b8dfc8"><path d="m176.288715 83.9850831c0 3.8383249-3.10151 6.950903-6.927733 6.950903s-6.927733-3.1125781-6.927733-6.950903c0-3.83902 3.10151-6.9509029 6.927733-6.9509029s6.927733 3.1118829 6.927733 6.9509029" mask="url(#b)"/><path d="m94.0392902 172.293493c0 3.83902-3.10151 6.95092-6.9277333 6.95092s-6.9277333-3.1119-6.9277333-6.95092 3.10151-6.950903 6.9277333-6.950903 6.9277333 3.111883 6.9277333 6.950903" mask="url(#b)"/></g></g></svg>

<?xml version="1.0" encoding="UTF-8"?>
<svg width="257px" height="257px" viewBox="0 0 257 257" version="1.1" xmlns="http://www.w3.org/2000/svg" xmlns:xlink="http://www.w3.org/1999/xlink">
    <!-- Generator: Sketch 50.2 (55047) - http://www.bohemiancoding.com/sketch -->
    <title>segment/logo</title>
    <desc>Created with Sketch.</desc>
    <defs>
        <circle id="path-1" cx="128.5" cy="128.5" r="125.5"></circle>
    </defs>
    <g id="segment/logo" stroke="none" stroke-width="1" fill="none" fill-rule="evenodd">
        <mask id="mask-2" fill="white">
            <use xlink:href="#path-1"></use>
        </mask>
        <use id="Mask" fill="#48B882" xlink:href="#path-1"></use>
        <path d="M146.03505,152.744209 L63.0224586,152.744209 C59.1962699,152.744209 56.0940325,149.631631 56.0940325,145.792611 C56.0940325,141.954286 59.1962699,138.841013 63.0224586,138.841013 L146.03505,138.841013 C149.861273,138.841013 152.963476,141.954286 152.963476,145.792611 C152.963476,149.631631 149.861273,152.744209 146.03505,152.744209" id="Fill-9" fill="#B8DFC8" mask="url(#mask-2)"></path>
        <path d="M128.236962,195.328135 C121.473606,195.328135 114.794776,194.317981 108.386675,192.327547 C104.731757,191.190439 102.686312,187.297145 103.818937,183.629221 C104.950868,179.961975 108.839448,177.909689 112.486918,179.045511 C117.566147,180.623871 122.864661,181.424939 128.236962,181.424939 C151.745632,181.424939 172.15868,166.287486 179.033065,143.759442 C180.152698,140.086739 184.022917,138.018117 187.686149,139.146535 C191.344531,140.271999 193.403313,144.158464 192.282987,147.829255 C183.614313,176.239742 157.87625,195.328135 128.236962,195.328135" id="Fill-10" fill="#FFFFFF" mask="url(#mask-2)"></path>
        <path d="M193.451466,117.426093 L110.438875,117.426093 C106.612651,117.426093 103.510449,114.31421 103.510449,110.474495 C103.510449,106.635475 106.612651,103.522897 110.438875,103.522897 L193.451466,103.522897 C197.277689,103.522897 200.379892,106.635475 200.379892,110.474495 C200.379892,114.31421 197.277689,117.426093 193.451466,117.426093" id="Fill-11" fill="#B8DFC8" mask="url(#mask-2)"></path>
        <path d="M70.8189645,117.428179 C70.1464222,117.428179 69.4637297,117.32964 68.7878098,117.122656 C65.1294103,115.997019 63.0704899,112.110554 64.190955,108.439936 C72.8602867,80.0273645 98.5983678,60.9396664 128.236962,60.9396664 C135.00361,60.9396664 141.683132,61.9490385 148.088462,63.9436258 C151.744246,65.0807334 153.787612,68.9739759 152.654295,72.6412915 C151.52167,76.3091285 147.637941,78.3709725 143.984928,77.2222209 C138.908297,75.6438605 133.610476,74.8428626 128.236962,74.8428626 C104.728986,74.8428626 84.3152441,89.9794462 77.4408597,112.509749 C76.52752,115.502239 73.7838632,117.428179 70.8189645,117.428179" id="Fill-12" fill="#FFFFFF" mask="url(#mask-2)"></path>
        <path d="M176.288715,83.9850831 C176.288715,87.823408 173.187205,90.9359861 169.360982,90.9359861 C165.534759,90.9359861 162.433249,87.823408 162.433249,83.9850831 C162.433249,80.1460631 165.534759,77.0341802 169.360982,77.0341802 C173.187205,77.0341802 176.288715,80.1460631 176.288715,83.9850831" id="Fill-13" fill="#B8DFC8" mask="url(#mask-2)"></path>
        <path d="M94.0392902,172.293493 C94.0392902,176.132513 90.9377802,179.244413 87.1115569,179.244413 C83.2853336,179.244413 80.1838236,176.132513 80.1838236,172.293493 C80.1838236,168.454473 83.2853336,165.34259 87.1115569,165.34259 C90.9377802,165.34259 94.0392902,168.454473 94.0392902,172.293493" id="Fill-14" fill="#B8DFC8" mask="url(#mask-2)"></path>
    </g>
</svg>
